X: 3594
T: Bill Cheatham
R: reel
M: 4/4
K: Amajor
|:E c2 B c2 AB|cBAc BAFE|F d2 c d2 de|fgaf ecBA|
E c2 B c2 AB|cBAc BABc|dcde fgaf|1 edcB A3 A:|2 edcB Aagf||
|:ecea fdfa|gegb a2 af|ecea fgaf|ecAc B2 cd|
ecea fdfa|gegb a2 af|ecea fgaf|1 edcB Aagf:|2 edcB A3 A||

